images/calendar.svg

<svg width="44" height="48" viewBox="0 0 44 48" fill="none" xmlns="http://www.w3.org/2000/svg">
<path fill-rule="evenodd" clip-rule="evenodd" d="M14.6111 2C14.6111 1.17163 13.9395 0.5 13.1111 0.5C12.2827 0.5 11.6111 1.17163 11.6111 2V4.94446H6.44444C3.16142 4.94446 0.5 7.60583 0.5 10.8889V19.7778V42C0.5 45.2831 3.16142 47.9445 6.44444 47.9445H37.5556C40.8386 47.9445 43.5 45.2831 43.5 42V19.7778V10.8889C43.5 7.60583 40.8386 4.94446 37.5556 4.94446H32.3889V2C32.3889 1.17163 31.7173 0.5 30.8889 0.5C30.0605 0.5 29.3889 1.17163 29.3889 2V4.94446H14.6111V2ZM6.44444 7.94446H11.6111V10.8889C11.6111 11.7173 12.2827 12.3889 13.1111 12.3889C13.9395 12.3889 14.6111 11.7173 14.6111 10.8889V7.94446H29.3889V10.8889C29.3889 11.7173 30.0605 12.3889 30.8889 12.3889C31.7173 12.3889 32.3889 11.7173 32.3889 10.8889V7.94446H37.5556C39.1817 7.94446 40.5 9.2627 40.5 10.8889V18.2778H3.5V10.8889C3.5 9.2627 4.81828 7.94446 6.44444 7.94446ZM3.5 21.2778H40.5V42C40.5 43.6262 39.1817 44.9445 37.5556 44.9445H6.44444C4.81828 44.9445 3.5 43.6262 3.5 42V21.2778ZM38 24H28V42H38V24Z" fill="white"/>
</svg>

<svg width="44" height="48" fill="none" xmlns="http://www.w3.org/2000/svg"><path fill-rule="evenodd" clip-rule="evenodd" d="M14.611 2a1.5 1.5 0 00-3 0v2.944H6.444A5.944 5.944 0 00.5 10.89V42a5.944 5.944 0 005.944 5.944h31.112A5.944 5.944 0 0043.5 42V10.888a5.944 5.944 0 00-5.944-5.944h-5.167V2a1.5 1.5 0 00-3 0v2.944H14.61V2zM6.444 7.944h5.167v2.945a1.5 1.5 0 003 0V7.944H29.39v2.945a1.5 1.5 0 003 0V7.944h5.167A2.944 2.944 0 0140.5 10.89v7.389h-37v-7.39a2.944 2.944 0 012.944-2.944zM3.5 21.278h37V42a2.944 2.944 0 01-2.944 2.944H6.444A2.944 2.944 0 013.5 42V21.278zM38 24H28v18h10V24z" fill="#fff"/></svg>
